images/category_icons/tools-icon.svg

<svg xmlns="http://www.w3.org/2000/svg" fill="none" viewBox="0 0 510 513"><path fill="#000" d="M489.645 395.396c-12.226-12.225-28.51-19.169-45.353-19.908l-19.377-19.377a203.06 203.06 0 0024.154-58.266h50.113v-96.84h-50.113c-4.979-20.591-13.083-40.139-24.154-58.265l35.449-35.449-68.475-68.475-35.449 35.448a203.11 203.11 0 00-58.266-24.151V0h-96.839v50.113c-20.592 4.979-40.141 13.084-58.265 24.153l-35.45-35.448-68.475 68.475 35.448 35.449c-11.07 18.125-19.174 37.674-24.153 58.265H.326v96.84H50.44c4.979 20.593 13.084 40.142 24.153 58.266l-35.448 35.449 68.475 68.475 35.45-35.448a203.069 203.069 0 0058.265 24.153v50.114h96.839v-50.114c20.592-4.979 40.141-13.084 58.265-24.153l16.712 16.712c-.595 18.63 6.423 37.172 19.923 50.671 13.086 13.086 30.499 20.03 48.256 20.03 8.682 0 17.446-1.66 25.826-5.075l10.454-4.26-44.545-44.544 4.849-17.884 17.882-4.849 44.546 44.545 4.26-10.454c10.397-25.523 4.526-54.601-14.957-74.085zM353.41 408.772c-19.706 12.846-41.331 21.811-64.279 26.644l-5.951 1.253v47.193h-66.855v-47.193l-5.951-1.253c-22.945-4.833-44.572-13.798-64.279-26.644l-5.094-3.32-33.384 33.383-47.273-47.275 33.383-33.384-3.321-5.094c-12.846-19.705-21.81-41.331-26.644-64.279l-1.253-5.951h-47.19v-66.856h47.19l1.254-5.951c4.833-22.944 13.797-44.57 26.644-64.278l3.32-5.094-33.382-33.384 47.274-47.274L141.004 93.4l5.094-3.32c19.706-12.847 41.332-21.811 64.279-26.644l5.951-1.253v-47.19h66.855v47.192l5.951 1.253c22.946 4.833 44.573 13.798 64.279 26.644l5.094 3.32 33.384-33.383 47.274 47.274-33.384 33.384 3.321 5.094c12.847 19.708 21.811 41.334 26.644 64.278l1.253 5.951h47.192v66.856h-47.192l-1.253 5.951c-4.832 22.945-13.797 44.573-26.644 64.279l-2.077 3.184-62.449-62.452-6.592-6.592c5.136-11.938 7.736-24.627 7.736-37.796 0-52.914-43.049-95.964-95.963-95.964-52.914 0-95.963 43.049-95.963 95.964 0 52.914 43.049 95.963 95.963 95.963 13.121 0 25.768-2.582 37.671-7.683l68.04 68.044 1.018 1.018-3.076 2zm-48.038-202.769c-19.482-19.484-48.562-25.356-74.082-14.957l-10.455 4.26 44.546 44.545-4.849 17.883-17.883 4.849-44.545-44.545-4.26 10.454c-10.397 25.52-4.526 54.599 14.956 74.083 16.259 16.259 39.694 23.177 62.077 18.582l4.949 4.949c-8.342 2.846-17.072 4.292-26.071 4.292-44.647 0-80.971-36.324-80.971-80.971 0-44.648 36.324-80.972 80.971-80.972 44.647 0 80.971 36.324 80.971 80.972 0 9.048-1.46 17.821-4.337 26.204l-3.407-3.407c6.328-23.41-.335-48.947-17.61-66.221zm188.592 246.351l-33.708-33.708-34.562 9.372-9.372 34.562 33.708 33.709c-16.726 2.769-34.009-2.573-46.356-14.92-11.42-11.42-16.89-27.466-15.299-43.212a53.44 53.44 0 01.217-1.831c.041-.303.08-.607.127-.908.137-.879.296-1.751.476-2.62a52.88 52.88 0 01.812-3.381c.041-.149.086-.297.128-.446.248-.868.518-1.727.809-2.58 1.018-2.137 6.744-13.695 15.129-22.079l-10.6-10.601c-5.645 5.645-10.185 12.255-13.34 17.507l-49.289-49.291-42.32-42.323h-.001l-15.089-15.09-4.203 1.151c-18.464 5.066-38.324-.183-51.831-13.689-12.346-12.347-17.689-29.631-14.919-46.357l33.708 33.708 34.562-9.373 9.372-34.561-33.709-33.709a53.213 53.213 0 0146.357 14.92c14.368 14.368 19.329 36.06 12.64 55.264l-1.307 3.752c-2.157 3.769-5.577 9.066-9.807 13.297l10.601 10.599c3.949-3.949 7.25-8.456 9.774-12.399L423.009 393.46l4.202-1.151a53.553 53.553 0 013.458-.826c.204-.042.41-.076.615-.115.371-.071.741-.144 1.111-.207.314-.053.629-.097.943-.145.266-.04.532-.085.798-.121.304-.041.609-.073.912-.109.283-.034.567-.072.85-.1.213-.022.427-.036.641-.055.381-.034.762-.071 1.141-.096.055-.004.111-.005.167-.009 15.154-.984 30.257 4.534 41.194 15.473 12.35 12.345 17.693 29.629 14.923 46.355z"/><path fill="#000" d="M306.259 312.035l10.9 10.901 10.601-10.601-10.901-10.9-10.6 10.6zM330.224 336.01l35.74 35.74 10.6-10.6-35.74-35.74-10.6 10.6zM286.578 382.296l4.02 14.443a151.257 151.257 0 0018.506-6.475l-5.861-13.799a136.004 136.004 0 01-16.665 5.831zM249.785 387.297c-75.47 0-136.87-61.4-136.87-136.87 0-7.793.66-15.602 1.96-23.215l-14.778-2.524a153.307 153.307 0 00-2.174 25.739c0 83.737 68.125 151.861 151.861 151.861 4.922 0 9.89-.238 14.763-.71l-1.44-14.922c-4.397.425-8.879.641-13.322.641zM155.1 151.593l-10.373-10.824a153.376 153.376 0 00-12.131 13.067l11.564 9.542a137.878 137.878 0 0110.94-11.785zM249.785 113.556c16.087 0 31.835 2.763 46.807 8.211l5.127-14.088c-16.621-6.049-34.094-9.115-51.934-9.115-33.374 0-65.041 10.62-91.58 30.712l9.049 11.952c23.912-18.103 52.452-27.672 82.531-27.672z"/></svg>

<svg width="510" height="513" viewBox="0 0 510 513" fill="none" xmlns="http://www.w3.org/2000/svg">
<path d="M489.645 395.396C477.419 383.171 461.135 376.227 444.292 375.488L424.915 356.111C435.985 337.986 444.089 318.437 449.069 297.845H499.182V201.005H449.069C444.09 180.414 435.986 160.866 424.915 142.74L460.364 107.291L391.889 38.816L356.44 74.264C338.315 63.196 318.766 55.093 298.174 50.113V0H201.335V50.113C180.743 55.092 161.194 63.197 143.07 74.266L107.62 38.818L39.1449 107.293L74.5929 142.742C63.5229 160.867 55.4189 180.416 50.4399 201.007H0.325928V297.847H50.4399C55.4189 318.44 63.5239 337.989 74.5929 356.113L39.1449 391.562L107.62 460.037L143.07 424.589C161.194 435.658 180.743 443.762 201.335 448.742V498.856H298.174V448.742C318.766 443.763 338.315 435.658 356.439 424.589L373.151 441.301C372.556 459.931 379.574 478.473 393.074 491.972C406.16 505.058 423.573 512.002 441.33 512.002C450.012 512.002 458.776 510.342 467.156 506.927L477.61 502.667L433.065 458.123L437.914 440.239L455.796 435.39L500.342 479.935L504.602 469.481C514.999 443.958 509.128 414.88 489.645 395.396ZM353.41 408.772C333.704 421.618 312.079 430.583 289.131 435.416L283.18 436.669V483.862H216.325V436.669L210.374 435.416C187.429 430.583 165.802 421.618 146.095 408.772L141.001 405.452L107.617 438.835L60.3439 391.56L93.7269 358.176L90.4059 353.082C77.5599 333.377 68.5959 311.751 63.7619 288.803L62.5089 282.852H15.3189V215.996H62.5099L63.7629 210.045C68.5959 187.101 77.5599 165.475 90.4069 145.767L93.7279 140.673L60.3449 107.289L107.619 60.015L141.004 93.4L146.098 90.08C165.804 77.233 187.43 68.269 210.377 63.436L216.328 62.183V14.993H283.183V62.185L289.134 63.438C312.08 68.271 333.707 77.236 353.413 90.082L358.507 93.402L391.891 60.019L439.165 107.293L405.781 140.677L409.102 145.771C421.949 165.479 430.913 187.105 435.746 210.049L436.999 216H484.191V282.856H436.999L435.746 288.807C430.914 311.752 421.949 333.38 409.102 353.086L407.025 356.27L344.576 293.818L337.984 287.226C343.12 275.288 345.72 262.599 345.72 249.43C345.72 196.516 302.671 153.466 249.757 153.466C196.843 153.466 153.794 196.515 153.794 249.43C153.794 302.344 196.843 345.393 249.757 345.393C262.878 345.393 275.525 342.811 287.428 337.71L355.468 405.754L356.486 406.772L353.41 408.772ZM305.372 206.003C285.89 186.519 256.81 180.647 231.29 191.046L220.835 195.306L265.381 239.851L260.532 257.734L242.649 262.583L198.104 218.038L193.844 228.492C183.447 254.012 189.318 283.091 208.8 302.575C225.059 318.834 248.494 325.752 270.877 321.157L275.826 326.106C267.484 328.952 258.754 330.398 249.755 330.398C205.108 330.398 168.784 294.074 168.784 249.427C168.784 204.779 205.108 168.455 249.755 168.455C294.402 168.455 330.726 204.779 330.726 249.427C330.726 258.475 329.266 267.248 326.389 275.631L322.982 272.224C329.31 248.814 322.647 223.277 305.372 206.003ZM493.964 452.354L460.256 418.646L425.694 428.018L416.322 462.58L450.03 496.289C433.304 499.058 416.021 493.716 403.674 481.369C392.254 469.949 386.784 453.903 388.375 438.157C388.438 437.545 388.508 436.935 388.592 436.326C388.633 436.023 388.672 435.719 388.719 435.418C388.856 434.539 389.015 433.667 389.195 432.798C389.24 432.582 389.285 432.366 389.333 432.15C389.535 431.233 389.757 430.32 390.007 429.417C390.048 429.268 390.093 429.12 390.135 428.971C390.383 428.103 390.653 427.244 390.944 426.391C391.962 424.254 397.688 412.696 406.073 404.312L395.473 393.711C389.828 399.356 385.288 405.966 382.133 411.218L332.844 361.927L290.524 319.604H290.523L275.434 304.514L271.231 305.665C252.767 310.731 232.907 305.482 219.4 291.976C207.054 279.629 201.711 262.345 204.481 245.619L238.189 279.327L272.751 269.954L282.123 235.393L248.414 201.684C265.141 198.919 282.425 204.258 294.771 216.604C309.139 230.972 314.1 252.664 307.411 271.868L306.104 275.62C303.947 279.389 300.527 284.686 296.297 288.917L306.898 299.516C310.847 295.567 314.148 291.06 316.672 287.117L423.009 393.46L427.211 392.309C428.359 391.994 429.513 391.719 430.669 391.483C430.873 391.441 431.079 391.407 431.284 391.368C431.655 391.297 432.025 391.224 432.395 391.161C432.709 391.108 433.024 391.064 433.338 391.016C433.604 390.976 433.87 390.931 434.136 390.895C434.44 390.854 434.745 390.822 435.048 390.786C435.331 390.752 435.615 390.714 435.898 390.686C436.111 390.664 436.325 390.65 436.539 390.631C436.92 390.597 437.301 390.56 437.68 390.535C437.735 390.531 437.791 390.53 437.847 390.526C453.001 389.542 468.104 395.06 479.041 405.999C491.391 418.344 496.734 435.628 493.964 452.354Z" fill="black"/>
<path d="M306.259 312.035L317.159 322.936L327.76 312.335L316.859 301.435L306.259 312.035Z" fill="black"/>
<path d="M330.224 336.01L365.964 371.75L376.564 361.15L340.824 325.41L330.224 336.01Z" fill="black"/>
<path d="M286.578 382.296L290.598 396.739C296.882 394.99 303.107 392.811 309.104 390.264L303.243 376.465C297.843 378.76 292.236 380.721 286.578 382.296Z" fill="black"/>
<path d="M249.785 387.297C174.315 387.297 112.915 325.897 112.915 250.427C112.915 242.634 113.575 234.825 114.875 227.212L100.097 224.688C98.6549 233.13 97.9229 241.791 97.9229 250.427C97.9229 334.164 166.048 402.288 249.784 402.288C254.706 402.288 259.674 402.05 264.547 401.578L263.107 386.656C258.71 387.081 254.228 387.297 249.785 387.297Z" fill="black"/>
<path d="M155.1 151.593L144.727 140.769C140.447 144.871 136.366 149.267 132.596 153.836L144.16 163.378C147.559 159.257 151.24 155.291 155.1 151.593Z" fill="black"/>
<path d="M249.785 113.556C265.872 113.556 281.62 116.319 296.592 121.767L301.719 107.679C285.098 101.63 267.625 98.564 249.785 98.564C216.411 98.564 184.744 109.184 158.205 129.276L167.254 141.228C191.166 123.125 219.706 113.556 249.785 113.556Z" fill="black"/>
</svg>
